X:1
T:Title
%%score { ( 1 5 ) | ( 2 3 4 ) }
L:1/8
Q:1/4=82
M:4/4
K:F
V:1 treble nm="Grand Piano"
V:5 treble 
V:2 bass 
V:3 bass 
V:4 bass 
V:1
 [Fc]2 [Fd]2 (3cAB [EG]2 | [EA]2 F2 (3AGD [EG]2 | [Ec]2 [^Fd]2 .[Dc]2 [B,EG]2 | z4 F2 z2 | %4
w: Alfred~R.~Gaul * * * * *||||
 [A,F]4 z4 |] %5
w: |
V:2
 [F,A,]2 [D,A,]2 [G,D]2 [C,C]2 | [C,A,]2 [D,A,D]2 (3:2:2[G,B,D]2 [G,B,] [C,B,]2 | %2
 [A,,A,]2 [D,A,]2 (3z[K:treble] AB[K:bass] C,2 | ^C,D,[G,,G,]G,, z2 E=C, | F,4 z4 |] %5
V:3
 x8 | x8 | z4 G,2[K:treble][K:bass] z2 | z4 =C,4 | x8 |] %5
V:4
 x8 | x8 | z4 G,,2[K:treble][K:bass] z2 | x8 | x8 |] %5
V:5
 x8 | x8 | x8 | [A,EA][A,FA][FB][A,FA] [B,G]3 [B,F] | x8 |] %5

